X:146
T: EIN JUNGES LAEMMCHEN WEISS WIE SCHNEE
N: F0274
O: Europa, Mitteleuropa, Deutschland
R: Jugend - Lied, Belehrung
M: 6/8
L: 1/16
K: G
BA | G4G2G4A2 | B4B2A4
d2 | c4A2B4G2 | B6A2z2
D2 | c4d2c4d2 | e4d2B4
B2 | A4c2F4D2 | A6G2z2

@@@ Tune index: 5577
